!!!!SEGMENT: pl-wtm--r-1589--005_stefani-jozef--vesperae-de-apostolis-antiphona.krn
!!!cenid: 18xx:2353
!!!COM: Stefani, Józef
!!!COM-rismid: pe30024097
!!!CDT: 1800/04/16-1876/03/19
!!!CNT: Polish
!!!OPR: Vesperae de Apostolis
!!!OTL: Antiphona
!!!OMV: 005
!!!PDT:
!!!AGN: Sacred; Vespers
!!!SMS-siglum: PL-Wtm
!!!SMS-shelfmark: R 1589
!!!SMS-shelfwork: 001-005 M
!!!SMS-variant:
!!!SMS-altvar:
!!!NIFC-rismid: 1001115607
!!!URL-scan: http://repozytorium.nifc.pl/skany/pl-wtm-nut--r1589
!!!ONB-nifc: UWAGA: części: 5 Antyfon (001-005) i Magnificat (006)
!!!OMD: Allo moderato.
**kern	**text	**dynam	**kern	**kern	**text	**dynam
*part3	*part3	*part3	*part2	*part1	*part1	*part1
*staff3	*staff3	*	*staff2	*staff1	*staff1	*
*Iempty	*	*	*Itenor	*Itenor	*	*
*I"[Basso]	*	*	*I"[Tenore 2o]	*I"[Tenore 1o]	*	*
*clefF4	*	*	*clefC4	*clefC4	*	*
*k[b-e-]	*	*	*k[b-e-]	*k[b-e-]	*	*
*B-:	*	*	*B-:	*B-:	*	*
*M2/2	*	*	*M2/2	*M2/2	*	*
*met(c|)	*	*	*met(c|)	*met(c|)	*	*
!	!	!LO:DY:rj	!	!LO:TX:a:t=Antiphona V	!	!LO:DY:rj
4F\	In	p	4A\	4f\	In	p
4F\	pa-	.	4A\	4e-\	pa-	.
=1	=1	=1	=1	=1	=1	=1
*	*	*	*2\right	*2\right	*	*
2BB-/	-tien-	.	2B-\	2d\	-tien-	.
(4F\	-ti-	.	(4A\	(4c\	-ti-	.
4BB-/)	-a	.	4B-\)	4d\)	-a	.
=2	=2	=2	=2	=2	=2	=2
2C/	ve-	.	(4G/	2e-\	ve-	.
.	.	.	4A/)	.	.	.
2BB-/	-stra	.	2B-\	2d\	-stra	.
=3	=3	=3	=3	=3	=3	=3
1F	ve-	.	(4A\	(4c\	ve-	.
.	.	.	8B-\L	8d\L	.	.
.	.	.	8c\J	8e-\J	.	.
.	.	.	4d\	4f\	.	.
.	.	.	8c\L	8e-\L	.	.
.	.	.	8A\J)	8c\J)	.	.
=4	=4	=4	=4	=4	=4	=4
2.BB-/	-stra	.	2.B-\	2.d\	-stra	.
4r	.	.	4r	4r	.	.
!!LO:LB:g=original
=5	=5	=5	=5	=5	=5	=5
*2\right	*	*	*	*	*	*
!	!	!LO:DY:rj	!	!	!	!LO:DY:rj
2G\	pos-	f	2B-\	2d\	pos-	f
2F\	-si-	.	2A\	2f\	-si-	.
=6	=6	=6	=6	=6	=6	=6
4.E-\	-de-	.	4.B-\	4.g\	-de-	.
8E-\	-bi-	.	8B-\	8g\	-bi-	.
4D\	-tis	.	4B-\	4f\	-tis	.
(8G\L	a-	.	8B-\L	(8B-\L	a-	.
8E-\J)	.	.	8G\J	8c\J	.	.
=7	=7	=7	=7	=7	=7	=7
2F\	.	.	((4B-\	4d\	.	.
.	.	.	8A\L	8c\L	.	.
.	.	.	8B-\J)	8d\J)	.	.
4F\	-ni-	.	4c\)	4e-'\	-ni-	.
4F\	-mas	.	4A\	4f'\	-mas	.
=8	=8	=8	=8	=8	=8	=8
2BB-/	ves-	.	2B-\	2d\	ve-	.
4BB-/	-tras	.	4B-\	4d\	-stras	.
4E-\	a-	p	4G/	(8G\L	a-	p
.	.	.	.	8c\J)	.	.
=9	=9	=9	=9	=9	=9	=9
2F\	.	.	(4F/	(4F\	.	.
.	.	.	4A\)	4f\)	.	.
4G\	-ni-	.	4B-\	4e-\	-ni-	.
4A\	-mas	.	4c\	4c\	-mas	.
!!LO:LB:g=original
=10	=10	=10	=10	=10	=10	=10
2B-\	ves-	.	2B-\	2B-\	ves-	.
4BB-/	-tras	.	4B-\	4B-\	-tras	.
!	!	!LO:DY:rj	!	!	!	!LO:DY:rj
4A-X\	a-	f	4B-\	(4d\	a-	f
=11	=11	=11	=11	=11	=11	=11
*	*	*	*^	*	*	*
(2G\	.	.	2B-\	2ryy	2e-\	.	.
2E-\)	.	.	2e-/	2B-\	2g\)	.	.
=12	=12	=12	=12	=12	=12	=12	=12
2BB-/	-men	.	2d/	2B-\	2f\	-men	.
2C/	a-	.	2G/	2ryy	(4f\	a-	.
.	.	.	.	.	4e-\)	.	.
*	*	*	*v	*v	*	*	*
=13	=13	=13	=13	=13	=13	=13
1F	.	.	(2.B-\	(2d\	.	.
.	.	.	.	2c\)	.	.
.	.	.	4A\)	.	.	.
=14	=14	=14	=14	=14	=14	=14
1BB-	-men.	.	1B-	1B-	-men.	.
==	==	==	==	==	==	==
*-	*-	*-	*-	*-	*-	*-
!!!system-decoration: {s1,s2,s3}
!!!RDF**dynam: p = "p."
!!!AIN: 1 empty 2 tenor
!!!ENC: Marta Lawrence
!!!END: 2021-06-14
!!!ENC: Andrzej Gręziak
!!!END: 2021-06-04
